X: 41403
T: Twenty-One Highland
R: strathspey
M: 4/4
K: Adorian
|:C>EA,>B, C>A,B,>C|B,>DG,>D B,>DA,>G,|
C>EA,>B, C>A,B,>C|1 D<B,G,>B, A,3 B,:|2 D<B,G,>B, A,3 B, e||
|:C>EA,>B, C>A,B,>C|B,>DG,>D B,>DA,>G,|
C>EA,>B, C>A,B,>C|1 D<B,G,>B, A,3 B,:|2 D<B,G,>B, A,3 B, e||

